public/vipps.svg

<svg fill="none" height="85" viewBox="0 0 375 85" width="375" xmlns="http://www.w3.org/2000/svg" xmlns:xlink="http://www.w3.org/1999/xlink"><clipPath id="a"><path d="m0 0h375v85h-375z"/></clipPath><g clip-path="url(#a)"><path d="m0 0h375v85h-375z" fill="#fff"/><rect fill="#ff5b24" height="84.7634" rx="20" width="375"/><path clip-rule="evenodd" d="m255.46 36.5438c-1.53-5.8364-5.244-8.1535-10.31-8.1535-4.106 0-9.26 2.3171-9.26 7.8939 0 3.604 2.49 6.4347 6.554 7.1657l3.843.6858c2.62.4713 3.365 1.4591 3.365 2.7883 0 1.5015-1.618 2.3595-4.019 2.3595-3.147 0-5.111-1.1148-5.419-4.2475l-5.549.8607c.873 6.0481 6.288 8.5374 11.185 8.5374 4.631 0 9.567-2.6614 9.567-8.0209 0-3.6492-2.229-6.3077-6.378-7.081l-4.236-.7733c-2.359-.429-3.147-1.5861-3.147-2.7037 0-1.4168 1.53-2.3171 3.624-2.3171 2.664 0 4.544.9003 4.631 3.8608l5.549-.8579zm-123.335 9.1808 5.765-16.688h6.771l-10.047 24.754h-5.024l-10.05-24.754h6.771zm35.43-9.6098c0 1.9756-1.572 3.3472-3.406 3.3472-1.835 0-3.407-1.3716-3.407-3.3472s1.572-3.3472 3.407-3.3472c1.834 0 3.406 1.3716 3.406 3.3472zm1.047 8.7518c-2.272 2.9182-4.676 4.9333-8.912 4.9333-4.237 0-7.691-2.5739-10.31-6.3472-1.047-1.5466-2.664-1.8881-3.844-1.0753-1.092.7733-1.355 2.4017-.347 3.8185 3.624 5.447 8.65 8.6248 14.503 8.6248 5.374 0 9.568-2.5739 12.844-6.8637 1.225-1.5861 1.177-3.2174 0-4.1205-1.092-.8608-2.706-.5588-3.931 1.0301zm15.074-3.5165c0 5.0631 2.972 7.7245 6.291 7.7245 3.146 0 6.378-2.4892 6.378-7.7245s-3.232-7.637-6.336-7.637c-3.364 0-6.336 2.3594-6.336 7.637zm0-8.8816v-3.3896h-6.161v33.2942h6.161v-11.8394c2.054 2.7489 4.719 3.906 7.733 3.906 5.636 0 11.139-4.3773 11.139-13.3859 0-9.0087-5.723-12.6578-10.614-12.6578-3.889 0-6.554 1.761-8.255 4.0753h-.003zm29.577 8.8816c0 5.0631 2.972 7.7245 6.291 7.7245 3.147 0 6.378-2.4892 6.378-7.7245s-3.231-7.637-6.336-7.637c-3.364 0-6.336 2.3594-6.336 7.637zm0-8.8816v-3.3896h-6.161v33.2942h6.161v-11.8394c2.055 2.7489 4.719 3.906 7.733 3.906 5.636 0 11.139-4.3773 11.139-13.3859 0-9.0087-5.723-12.6578-10.614-12.6578-3.889 0-6.553 1.761-8.255 4.0753h-.003z" fill="#fff" fill-rule="evenodd"/></g></svg>

<svg width="375" height="85" viewBox="0 0 375 85" fill="none" xmlns="http://www.w3.org/2000/svg">
<g clip-path="url(#clip0_210_3)">
<rect width="375" height="85" fill="white"/>
<rect width="375" height="84.7634" rx="20" fill="#FF5B24"/>
<path fill-rule="evenodd" clip-rule="evenodd" d="M255.46 36.5438C253.93 30.7074 250.216 28.3903 245.15 28.3903C241.044 28.3903 235.89 30.7074 235.89 36.2842C235.89 39.8882 238.38 42.7189 242.444 43.4499L246.287 44.1357C248.907 44.607 249.652 45.5948 249.652 46.924C249.652 48.4255 248.034 49.2835 245.633 49.2835C242.486 49.2835 240.522 48.1687 240.214 45.036L234.665 45.8967C235.538 51.9448 240.953 54.4341 245.85 54.4341C250.481 54.4341 255.417 51.7727 255.417 46.4132C255.417 42.764 253.188 40.1055 249.039 39.3322L244.803 38.5589C242.444 38.1299 241.656 36.9728 241.656 35.8552C241.656 34.4384 243.186 33.5381 245.28 33.5381C247.944 33.5381 249.824 34.4384 249.911 37.3989L255.46 36.541V36.5438ZM132.125 45.7246L137.89 29.0366H144.661L134.614 53.7906H129.59L119.54 29.0366H126.311L132.125 45.7246ZM167.555 36.1148C167.555 38.0904 165.983 39.462 164.149 39.462C162.314 39.462 160.742 38.0904 160.742 36.1148C160.742 34.1392 162.314 32.7676 164.149 32.7676C165.983 32.7676 167.555 34.1392 167.555 36.1148ZM168.602 44.8666C166.33 47.7848 163.926 49.7999 159.69 49.7999C155.453 49.7999 151.999 47.226 149.38 43.4527C148.333 41.9061 146.716 41.5646 145.536 42.3774C144.444 43.1507 144.181 44.7791 145.189 46.1959C148.813 51.6429 153.839 54.8207 159.692 54.8207C165.066 54.8207 169.26 52.2468 172.536 47.957C173.761 46.3709 173.713 44.7396 172.536 43.8365C171.444 42.9757 169.83 43.2777 168.605 44.8666H168.602ZM183.676 41.3501C183.676 46.4132 186.648 49.0746 189.967 49.0746C193.113 49.0746 196.345 46.5854 196.345 41.3501C196.345 36.1148 193.113 33.7131 190.009 33.7131C186.645 33.7131 183.673 36.0725 183.673 41.3501H183.676ZM183.676 32.4685V29.0789H177.515V62.3731H183.676V50.5337C185.73 53.2826 188.395 54.4397 191.409 54.4397C197.045 54.4397 202.548 50.0624 202.548 41.0538C202.548 32.0451 196.825 28.396 191.934 28.396C188.045 28.396 185.38 30.157 183.679 32.4713H183.676V32.4685ZM213.253 41.3501C213.253 46.4132 216.225 49.0746 219.544 49.0746C222.691 49.0746 225.922 46.5854 225.922 41.3501C225.922 36.1148 222.691 33.7131 219.586 33.7131C216.222 33.7131 213.25 36.0725 213.25 41.3501H213.253ZM213.253 32.4685V29.0789H207.092V62.3731H213.253V50.5337C215.308 53.2826 217.972 54.4397 220.986 54.4397C226.622 54.4397 232.125 50.0624 232.125 41.0538C232.125 32.0451 226.402 28.396 221.511 28.396C217.622 28.396 214.958 30.157 213.256 32.4713H213.253V32.4685Z" fill="white"/>
</g>
<defs>
<clipPath id="clip0_210_3">
<rect width="375" height="85" fill="white"/>
</clipPath>
</defs>
</svg>
